X:54
T:No Me Toques
C:Zeduinha De Abreu
N:TablEdited by Greg Brouelette
L:1/8
Q:1/4=103
M:2/4
K:C
e/dc/ B/cd/ | eE3/2E/^D/E/ |: e3/2d/ c/B/A/F/ | E2 z/E/^D/E/ | F/E/^D/E/ A/c/e/^d/ | 
d2 z/E/^D/E/ | d3/2c/ B/A/^G/F/ | E2 z/E/^D/E/ | F/E/^D/E/ ^G/c/d/^c/ | c2 z/E/^D/E/ | 
e3/2d/ c/B/A/F/ | E2 z/E/^D/E/ | F/E/^D/E/ A/c/e/^d/ | d2 z/F/A/d/ | f/d/A/F/ f/d/A/F/ | 
e/c/A/E/ e/c/A/E/ | d/B/^G/E/ d/B/G/E/ |1 AE A/E/^D/E/ :|2 AE AF |: Ed/B/ G/E/D/_D/ | 
Cc/A/ E/D/_D/C/ | B,B/_A/ E/D/C/B,/ | A,2 z/A/_A/G/ | F/d/A/F/ z/d/A/F/ | E/c/A/E/ z/c/A/E/ | 
c/_c/_B/c/ e/d/=c/B/ |1 AE AF :|2 AE A/E/^D/E/ | AE A/E/A/^c/ | 
K:A
|: ec ec | BA z/AB/ | AF AF | G2 z/B/d/f/ | af af | g2 z/B/d/f/ | f2 z/G/B/d/ | 
e2 z/E/A/c/ | ec ec | BA z/A/G/A/ | BA GA | ed z/D/d/f/ | af af | eA/c/ f/e/d/c/ | 
B/A/G/F/ E/D/C/B,/ |1 A,2 z/E/A/c/ :|2 A,2 z/E/^D/E/ | 
 

